X:133
T:Saddle the Pony
Z: id:dc-jig-112
M:6/8
L:1/8
K:G Major
D|GBA G2B|def gdB|GBA G2B|AFD AFD|!
GBA G2B|def gfg|ege dBA|BGF G2:|!
d|efe edB|def gfg|ege edB|dBA ABd|!
efe edB|def gfg|ege dBA|BGF G2:|!

